icons/temple.svg

<svg width="48" height="48" viewBox="0 0 48 48" fill="none" xmlns="http://www.w3.org/2000/svg">
<path fill-rule="evenodd" clip-rule="evenodd" d="M14 10.7622C14 12.4907 14.7028 13.3157 15.428 13.7069C16.2012 14.1239 17 14.0479 17 14.0479V18.0479C17 18.0479 15.1999 21.9857 13.1185 22.6417C12.4248 22.8603 11.6999 22.7144 11 21.9367C11 23.5993 11.7996 24.3734 12.5443 24.7338C13.193 25.0479 13.8 25.0479 13.8 25.0479H15V29.0479C15 29.0479 13.5957 33.1438 11.3241 33.6769C10.6261 33.8407 9.8462 33.668 9 32.9367C9 34.597 10.0252 35.3713 10.9815 35.7323L11 35.7393V44.0479H37V35.7393L37.0165 35.7331C37.9733 35.3723 39 34.5982 39 32.9367C38.1722 33.6522 37.384 33.8329 36.661 33.687C34.9831 33.3486 33.6564 31.2511 33 29.9952V25.0479H34.2C34.2 25.0479 34.8071 25.0479 35.456 24.7337C36.2005 24.3732 37 23.5991 37 21.9367C36.3155 22.6973 35.5862 22.8536 34.8749 22.6556C33.2253 22.1965 31.6725 19.832 31 18.6801V14.0479C31 14.0479 31.7987 14.1239 32.5719 13.7069C33.2972 13.3158 34 12.4908 34 10.7622C33.3174 11.4936 32.5765 11.7798 31.8171 11.7514C29.3451 11.6592 26.6772 8.23366 25.1851 5.98202C24.4497 4.87239 24 4.04785 24 4.04785C24 4.04785 23.5503 4.87239 22.8149 5.98202C21.3228 8.23366 18.6549 11.6592 16.1829 11.7514C15.4235 11.7798 14.6826 11.4936 14 10.7622ZM29.5222 20.1041C29.5105 20.0852 29.499 20.0664 29.4877 20.0479H18.2139L18.197 20.0778C17.8222 20.7403 17.2649 21.6364 16.5777 22.4497C16.4157 22.6415 16.2332 22.8448 16.0311 23.0479H31.8246C31.6318 22.8642 31.4551 22.6802 31.2952 22.5044C30.5623 21.6983 29.9582 20.8077 29.5484 20.1465C29.5435 20.1387 29.5387 20.1308 29.5339 20.123C29.53 20.1167 29.5261 20.1104 29.5222 20.1041ZM26 16.0479C26.5523 16.0479 27 16.4956 27 17.0479V18.0479H29V14.0479H19V18.0479H21V17.0479C21 16.4956 21.4477 16.0479 22 16.0479C22.5523 16.0479 23 16.4956 23 17.0479V18.0479H25V17.0479C25 16.4956 25.4477 16.0479 26 16.0479ZM28 27.0479C28.5523 27.0479 29 27.4956 29 28.0479V29.0479H31V25.0479H17V29.0479H19V28.0479C19 27.4956 19.4477 27.0479 20 27.0479C20.5523 27.0479 21 27.4956 21 28.0479V29.0479H23V28.0479C23 27.4956 23.4477 27.0479 24 27.0479C24.5523 27.0479 25 27.4956 25 28.0479V29.0479H27V28.0479C27 27.4956 27.4477 27.0479 28 27.0479ZM27.785 12.0479C27.128 11.5197 26.5331 10.9255 26.0158 10.3527C25.2535 9.50874 24.5675 8.60631 24 7.79502C23.4325 8.60631 22.7465 9.50874 21.9842 10.3527C21.4669 10.9255 20.872 11.5197 20.215 12.0479H27.785ZM32.9042 33.4579C33.0684 33.6501 33.2515 33.85 33.4533 34.0479H14.3634C14.5777 33.8229 14.7676 33.5958 14.9336 33.3806C15.5493 32.5824 16.0162 31.7123 16.3301 31.0479H31.2941C31.6536 31.7216 32.1978 32.6308 32.9042 33.4579ZM21 38.0479C19.8954 38.0479 19 38.9433 19 40.0479V42.0479H17V36.0479H31V42.0479H29V40.0479C29 38.9433 28.1046 38.0479 27 38.0479H21ZM13 42.0479V36.0479H15V42.0479H13ZM33 42.0479V36.0479H35V42.0479H33ZM27 40.0479V42.0479H21V40.0479H27Z" fill="black"/>
</svg>

<svg
  xmlns="http://www.w3.org/2000/svg"
  width="24"
  height="24"
  viewBox="0 0 24 24"
  fill="none"
  stroke="currentColor"
  stroke-width="2"
  stroke-linecap="round"
  stroke-linejoin="round"
>
  <path
    fill-rule="evenodd"
    d="M14 10.762c0 1.729.703 2.554 1.428 2.945.773.417 1.572.34 1.572.34v4s-1.8 3.939-3.882 4.595c-.693.218-1.418.072-2.118-.705 0 1.662.8 2.436 1.544 2.797.649.314 1.256.314 1.256.314H15v4s-1.404 4.096-3.676 4.629c-.698.164-1.478-.009-2.324-.74 0 1.66 1.025 2.434 1.982 2.795l.018.007v8.309h26v-8.309l.017-.006c.956-.36 1.983-1.135 1.983-2.796-.828.715-1.616.896-2.339.75-1.678-.338-3.005-2.436-3.661-3.692v-4.947h1.2s.607 0 1.256-.314C36.2 24.374 37 23.599 37 21.937c-.684.76-1.414.917-2.125.719-1.65-.46-3.203-2.824-3.875-3.976v-4.632s.799.076 1.572-.341C33.297 13.316 34 12.49 34 10.762c-.683.732-1.423 1.018-2.183.99-2.472-.093-5.14-3.518-6.632-5.77C24.45 4.872 24 4.048 24 4.048s-.45.824-1.185 1.934c-1.492 2.252-4.16 5.677-6.632 5.77-.76.028-1.5-.258-2.183-.99m15.522 9.342-.034-.056H18.214l-.017.03c-.375.662-.932 1.558-1.62 2.372a10 10 0 0 1-.546.598h15.794q-.29-.278-.53-.544c-.733-.806-1.337-1.696-1.747-2.358l-.014-.023zM26 16.048a1 1 0 0 1 1 1v1h2v-4H19v4h2v-1a1 1 0 1 1 2 0v1h2v-1a1 1 0 0 1 1-1m2 11a1 1 0 0 1 1 1v1h2v-4H17v4h2v-1a1 1 0 1 1 2 0v1h2v-1a1 1 0 1 1 2 0v1h2v-1a1 1 0 0 1 1-1m-.215-15a15.6 15.6 0 0 1-1.77-1.695A27 27 0 0 1 24 7.795a27 27 0 0 1-2.016 2.558 15.6 15.6 0 0 1-1.769 1.695zm5.12 21.41c.163.192.346.392.548.59h-19.09c.215-.225.405-.452.57-.667.616-.799 1.083-1.669 1.397-2.333h14.964c.36.674.904 1.583 1.61 2.41M21 38.048a2 2 0 0 0-2 2v2h-2v-6h14v6h-2v-2a2 2 0 0 0-2-2zm-8 4v-6h2v6zm20 0v-6h2v6zm-6-2v2h-6v-2z"
    clip-rule="evenodd"
  />
</svg>
